X:1
T:Title
%%score ( 1 2 ) ( 3 4 )
L:1/8
Q:1/4=103
M:4/4
K:Bb
V:1 treble nm="Grand Piano, Staff"
V:2 treble 
V:3 bass nm="Choir Pad, Walsall, CM"
V:4 bass 
V:1
 [DG]2 [DB]2 [CA][B,G] [A,D]2 | [Dd]2 cB [CA]2 [B,G]2 | [B,B][CA] [DG]2 [C^F]2 GA | Bc [^Fd]6 | %4
w: By~Attributed~to~Henry~Purcell~(1658\-1695) * * * *||||
 [Fd]2 [Fd]2 [Fd]2 [Fc]2 | BA [EG]2 [Ec]2 [DA]2 | [Dd]2 [B,G][C^F] [DG][EA] [DB]2 | [DA]2 [B,G]6- | %8
w: ||||
 [B,G]2 z2 z4 |] %9
w: |
V:2
 x8 | z2 E2 z4 | z4 z2 D2 | G2 z2 z4 | x8 | D2 z2 z4 | x8 | x8 | x8 |] %9
V:3
 [G,,G,]2 G,2 [G,,D,]2 [D,^F,]2 | G,B,A,G, [D,^F,]2 [G,,G,]2 | [G,D][A,C] B,2 [A,C]2 [G,B,][F,A,] | %3
 [E,G,]2 [D,A,]6 | [B,,B,]2 B,-[C,B,] B,-[E,B,] [F,A,]2 | [B,,F,]2 G,-[D,G,] [C,G,]2 [D,^F,]2 | %6
 z4 G,2 z2 | [D,^F,]2 G,6- | G,2 z2 z4 |] %9
V:4
 x8 | B,,2 C,2 z4 | x8 | x8 | z2 .B,,2 .D,2 z2 | z2 .E,2 z4 | %6
 [^F,,D,]2 [G,,D,][A,,A,] B,,C, [D,G,]2 | x8 | x8 |] %9

